X: 138
T: Luggelaw
N:"Moderate"
B:O'Neill's 138
Z:Transcribed by henrik.norbeck@mailbox.swipnet.se
M:3/4
L:1/8
K:G
G/A/ BB|A>B cd ee|d>B GA Bd|d2 BG {B}A>G|G z GA BB|
A>B cd ee|dB GA Bd|ed BG {B}A>G|G2 z||
d de|e2 g2 {f}e>d|Bd d2 e(f/g/)|B2 cB AG|A2 z B cB|
A>B cd ee|d>B HG>A Bd|ed BG {B}A>G|G2 z||


